X:1
T:GOLDBERG-VARIATIONEN, BWV988
T:ARIA MIT VERSCHIEDENEN VERAGNDRUNGEN 3 Recoders(Aria) and 2 Recorders(Variation 1)
T:Johann Sebastian Bach (1685-1750) Arr: Jan Kok
%%score [ 1 2 3 ]
L:1/8
Q:1/4=72
M:3/4
K:G
V:1 treble+8 nm="Soprano Rec." snm="S."
V:2 treble nm="Tenor Rec." snm="T."
V:3 bass+8 nm="Bass Rec." snm="B."
V:1
"^0. Aria" g2 (g2 Ma>)b | a{g}f{e} d2- d2 | MG2 PG3 F/G/ | A/4(G/4F/)G/4(F/4E/){E} D2- D2 | %4
 d2 (d2 Me>)=f | e{d}c{B} A- A2 !invertedturn!f | g/<f/a/<g/ f/<e/d/<c/{c} a>c | B/<G/F{F} G2- G2 | %8
 B2 (B2 M^c>)d | d/^c/B/A/- A4 | G/B/e/g/ Pg3 f/g/ | ge P^c3 e | (a/g/)f/e/ d A2- A/4B/4c/ | %13
 (B/A/)G/F/ E{d} ^c2- c/4d/4e/ | d/(^c/B/)A/ g B2 c |{^c} d-d/4e/4d/4c/4{c} d2- d2 :: %16
 PA2 PA2- A/(A/4B/4)c/4d/4e/ |{e} d{c}B{A} G- G2 g |{f} e3/2f/4^d/4{d} Me3 a/4b/4a/4g/4 | %19
 a>f{e} ^d3 B | Pg>f{f} e2- e/B/(c/4B/4)A/4B/4 | g/<e/f/<^d/{d} e2- e/G/F/E/ | F>e{e} ^d(Pa g)f | %23
{f} e3/2f/4^d/4{d} e4 | ec A3 B/c/ | (d/4c/4)B/(c/4B/4)A/ G3 A/B/ | c/d/c/B/ c/A/E/A/ c2- | %27
 c/d/c/B/ c/A/F/A/ c/e/d/c/ | B/c/B/A/ B/G/D/G/ B/G/c/d/ | e/=f/e/d/ e/c/G/c/ e/c/^f/g/ | %30
 a/c/B/A/ B/c/d/G/ B/A/G/F/ | G2- G/D/G/F/{!fermata!F} !fermata!G2 :| z/8 | %33
[M:3/4][Q:1/4=90]"^Variation 1" G/F/G- G/D/E/F/ G/A/B/^c/ | d/^c/d- d/A/B/c/ d/e/f/d/ | %35
 g/f/g- g/f/e/d/ ^c/e/A/G/ | F/E/D/^C/ D/F/A/G/ F/A/D | z (d/c/ d)G Bd | z e/d/ eA Ce | %39
 z f/e/ fd ac- | cB z/ G/B/d/ g/d/g/a/ | b/g/d/B/ G/B/d/g/ b/g/f/e/ | a/e/^c/A/ F/A/c/e/ a/f/e/d/ | %43
 g/d/B/G/ E/G/B/d/ g/f/e/d/ | ^c/G/E/^C/ A/C/E/G/ c/e/d/c/ | dD/F/ A/F/A df | BD/G/ B/G/B eg | %47
 ^c/e/A/G/ F/A/d/f/ g/e/d/c/ | f/d/^c/B/ A/G/F/E/ D2 :: f/g/a- a/b/a/g/ f/e/d/c/ | %50
 B/c/d- d/e/d/c/ B/A/G/F/ | E/^G/A/B/ A/E/A/B/ c/A/^d/e/ | f/e/^d/^c/ B4- | B/^d/e- e/^D/E- E/d/e | %54
 z/ ^g/a- a/^G/A- A/g/a- | a/B/c/F/ B/^D/E/G/ F/E/D/A/ | G/F/E/^D/ E/G/B/A/ G/B/E | z e ce aA | %58
 z d Bd gG | c/A/E/C/ A/C/E/A/ c/A/c/e/ | f/c/A/F/ D/F/A/c/ f/c/f/a/ | %61
 b/g/d/B/ G/B/d/g/ b/=f/b/d'/ | e/d'/c'/e/ d/c'/b/d/ c/e/f/g/ | a/c/B/A/ B/d/B/G/ c/A/G/F/ | %64
 B/g/f/e/ d/c/B/A/ G2 :| %65
V:2
 z2 B2 d2 | z2 A2 d2 | z2 G2 ^c2 | z2 F2 A2 | z2 D2 G2 | z2 E2 A2 | z c- c2 G/F/E/F/ | GA B4 | %8
 z2 B2 e2 | A2 d4 | z B e3 d | ^cd e4 | z2 A2 d2 | z2 B2 e2 | f2 e>f g2- | g2 f4 :: z e f4 | %17
 z c d4 | z e g2 fe | ^de f4 | z APGF G2 | z APGFGB | F3 c BA | A2 G4 | z2 E2 A2- | %25
 AF DE/F/ G/F/G- | GE A e- e/b/a/g/ | f2 z f3 | g z z d3/2g3/2- | g2 z g3/2c'3/2 | z6 | %31
 z/ c/B/A/ B2- !fermata!B2 :| z/8 |[M:3/4] z6 | z6 | z6 | z6 | z6 | z6 | z6 | z6 | z6 | z6 | z6 | %44
 z6 | z6 | z6 | z6 | z6 :: z6 | z6 | z6 | z6 | z6 | z6 | z6 | z6 | z6 | z6 | z6 | z6 | z6 | z6 | %63
 z6 | z6 :| %65
V:3
 G,6 | F,6 | E,6 | D,4- D,C, | B,,6 | C,4 C,D, | E,C, D,4 | G,,3 D, E,>F, | G,6- | G,2 F,E,F,B, | %10
 E,3 E,F,G, | A,3 B,A,G, | F,6 | G,6 | A,6 | D,3 A, D2 :: D4 C2 | B,3 A, B,2 | C3 B, A,2 | %19
 B,3 A, G,F, | E,4 D,2 | C,4 B,,2 | A,,C, B,,A,, B,,2 | E,B,, G,,B,, E,D, | C,6 | B,,6 | %26
 A,,3 G,F,E, | D,A,, D,C, B,,A,, | G,,D, G,=F, E,D, | C,G, CB, A,G, | F,D, G,B, DD, | %31
 G,3 D, !fermata!G,,2 :| z/8 |[M:3/4] G,,B,/A,/ B,G, G,,G, | F,F,/E,/ F,D, F,D, | %35
 E,(E,/D,/ E,)G, A,,^C | D,F,/E,/ F,D D, z/ C/ | B,/A,/B,- B,/D,/E,/F,/ G,/A,/B,/G,/ | %38
 C,/B,,/C,- C,/E,/F,/G,/ A,/B,/C/A,/ | D,/^C,/D,- D,/A,/B,/C/ D/E,/F,/D,/ | %40
 (G,/F,/G,/)D/ B,/D/G,/B,/ D,/G,/B,,/D,/ | G,,G, B,G, G,,G, | F,2 F,F, D,F, | E,E, G,E, E,G, | %44
 A,,E, G,E, A,,G, | F,/A,/F, F,D/A,/ F,/A,/D,/F,/ | G,/B,/G, G,D/B,/ G,/B,/E,/G,/ | %47
 A,^C D/A,/F,/D,/ A,A,, | D,/D,/E,/F,/ G,/A,/B,/^C/ D2 :: D,F,/E,/ F,D, D,F, | %50
 G,,B,/A,/ B,G, G,,B, | C,(C/B,/ C)F, A,C | A,F, ^D,/B,,/D,/F,/ B,/D,/F,/A,/ | %53
 G,-G,/F,/ G,-G,/F,/ G,-G,/B,,/ | C,-C,/B,/ C-C/B,/ C-C/E,/ | ^D,A, G,^A,, B,,F, | %56
 E,G,/F,/ G,E, E, z/ D,/ | C,/E,/A,/C/ E,/C/A,/E,/ C,/E,/D,/C,/ | %58
 B,,/D,/G,/B,/ D/B,/G,/D,/ B,,/D,/C,/B,,/ | A,,C, E,G, F,E, | D,F, A,C B,A, | G,B,, D,=F, E,D, | %62
 C,E, F,^G, A,=G, | F,D, G,G,, DD, | G,/G,,/A,,/B,,/ C,/D,/E,/F,/ G,2 :| %65

